assets/static/svgs/logos/logo-betadda-full.svg

<svg width="1em" height="auto"    viewBox="0 0 1909 449" fill="none" xmlns="http://www.w3.org/2000/svg">
<symbol id="item"
width="1em"
height="auto"
viewBox="0 0 1909 449"
fill="none"
>
<g clip-path="url(#a)"><path d="M561.25 361.422h108.822c59.086 0 87.506-31.264 87.506-73.828 0-35.408-19.445-59.516-53.476-67.802v-.754c28.795-11.3 40.014-35.784 40.014-59.892 0-42.564-30.665-65.165-87.133-65.165H561.25v267.441Zm51.98-158.204v-62.529h37.396c28.795 0 40.388 12.431 40.388 31.264 0 21.848-15.333 31.265-38.144 31.265h-39.64Zm0 111.496v-68.555h44.127c30.291 0 45.623 13.56 45.623 34.654 0 22.601-15.332 33.901-40.387 33.901H613.23ZM951.888 267.63c0-53.865-35.9-93.04-87.506-93.04-54.224 0-92.742 38.421-92.742 94.546 0 57.632 39.639 95.676 95.733 95.676 40.762 0 64.321-15.067 79.654-35.031l-31.787-29.757c-9.723 12.054-23.933 20.717-44.501 20.717-24.681 0-42.257-13.184-48.241-35.408h128.268c.374-3.013 1.122-11.677 1.122-17.703Zm-87.88-50.099c21.315 0 34.404 12.808 39.265 32.395h-80.401c5.61-21.094 21.316-32.395 41.136-32.395ZM1031.41 364.812c24.68 0 36.64-5.273 48.24-11.677l-12.34-39.551c-8.23 4.144-17.21 6.404-23.19 6.404-11.59 0-15.7-7.534-15.7-23.731v-77.972h49.36v-41.058h-49.36v-65.165l-48.993 5.273v59.892h-21.69v41.058h21.69v85.129c0 41.435 20.567 61.398 51.983 61.398ZM1166.29 364.812c23.93 0 42.25-9.04 54.97-25.614l.75.377v21.847h46.74V177.227h-48.99v21.094l-.75.377c-13.08-15.821-32.53-24.108-53.85-24.108-48.98 0-86.01 39.551-86.01 95.3 0 56.878 37.03 94.922 87.14 94.922Zm9.35-44.447c-27.68 0-46.75-20.718-46.75-50.099 0-31.641 20.19-51.605 46.75-51.605 26.17 0 46.37 21.848 46.37 51.605 0 30.135-21.32 50.099-46.37 50.099ZM1377.39 364.812c24.68 0 43.76-9.416 56.47-25.99h.37v22.6h46.75V84.187h-48.62v114.511h-.74c-13.47-15.821-32.91-24.108-55.35-24.108-48.99 0-86.38 39.551-86.38 95.3 0 56.878 37.02 94.922 87.5 94.922Zm8.98-44.447c-27.3 0-46.75-20.718-46.75-50.099 0-31.641 20.57-51.605 46.75-51.605 28.04 0 47.86 21.848 47.86 51.605 0 30.135-20.94 50.099-47.86 50.099ZM1591.78 364.812c24.68 0 43.75-9.416 56.46-25.99h.38v22.6h46.74V84.187h-48.61v114.511h-.75c-13.46-15.821-32.91-24.108-55.35-24.108-48.99 0-86.38 39.551-86.38 95.3 0 56.878 37.02 94.922 87.51 94.922Zm8.97-44.447c-27.3 0-46.74-20.718-46.74-50.099 0-31.641 20.56-51.605 46.74-51.605 28.05 0 47.87 21.848 47.87 51.605 0 30.135-20.94 50.099-47.87 50.099ZM1805.79 364.812c23.93 0 42.25-9.04 54.97-25.614l.75.377v21.847h46.74V177.227h-48.99v21.094l-.75.377c-13.09-15.821-32.53-24.108-53.85-24.108-48.99 0-86.01 39.551-86.01 95.3 0 56.878 37.02 94.922 87.14 94.922Zm9.34-44.447c-27.67 0-46.74-20.718-46.74-50.099 0-31.641 20.19-51.605 46.74-51.605 26.18 0 46.38 21.848 46.38 51.605 0 30.135-21.32 50.099-46.38 50.099Z" fill="currentColor"/><circle cx="203.453" cy="231.516" r="189.422" fill="#F93"/><circle cx="105.234" cy="133.297" r="105.234" fill="#1CA30F"/></g><defs><clipPath id="a"><path fill="currentColor" transform="translate(0 28.063)" d="M0 0h1908.25v392.875H0z"/></clipPath></defs>
</symbol>
</svg>

<svg width="1em" height="auto"  viewBox="0 0 1909 449" fill="none" xmlns="http://www.w3.org/2000/svg">
<symbol id="item"
width="1em"
height="auto"
viewBox="0 0 1909 449"
fill="none"
>
 <title>Betadda.com</title> <g clip-path="url(#clip0)"> <path d="M561.25 361.422H670.072C729.158 361.422 757.578 330.158 757.578 287.594C757.578 252.186 738.133 228.078 704.102 219.792V219.038C732.897 207.738 744.116 183.254 744.116 159.146C744.116 116.582 713.451 93.9811 656.983 93.9811H561.25V361.422ZM613.23 203.218V140.689H650.626C679.421 140.689 691.014 153.12 691.014 171.953C691.014 193.801 675.681 203.218 652.87 203.218H613.23ZM613.23 314.714V246.159H657.357C687.648 246.159 702.98 259.719 702.98 280.813C702.98 303.414 687.648 314.714 662.593 314.714H613.23Z" fill="currentColor"/> <path d="M951.888 267.63C951.888 213.765 915.988 174.59 864.382 174.59C810.158 174.59 771.64 213.011 771.64 269.136C771.64 326.768 811.279 364.812 867.373 364.812C908.135 364.812 931.694 349.745 947.027 329.781L915.24 300.024C905.517 312.078 891.307 320.741 870.739 320.741C846.058 320.741 828.482 307.557 822.498 285.333H950.766C951.14 282.32 951.888 273.656 951.888 267.63ZM864.008 217.531C885.323 217.531 898.412 230.339 903.273 249.926H822.872C828.482 228.832 844.188 217.531 864.008 217.531Z" fill="currentColor"/> <path d="M1031.41 364.812C1056.09 364.812 1068.05 359.539 1079.65 353.135L1067.31 313.584C1059.08 317.728 1050.1 319.988 1044.12 319.988C1032.53 319.988 1028.42 312.454 1028.42 296.257V218.285H1077.78V177.227H1028.42V112.062L979.427 117.335V177.227H957.737V218.285H979.427V303.414C979.427 344.849 999.994 364.812 1031.41 364.812Z" fill="currentColor"/> <path d="M1166.29 364.812C1190.22 364.812 1208.54 355.772 1221.26 339.198L1222.01 339.575V361.422H1268.75V177.227H1219.76V198.321L1219.01 198.698C1205.93 182.877 1186.48 174.59 1165.16 174.59C1116.18 174.59 1079.15 214.141 1079.15 269.89C1079.15 326.768 1116.18 364.812 1166.29 364.812ZM1175.64 320.365C1147.96 320.365 1128.89 299.647 1128.89 270.266C1128.89 238.625 1149.08 218.661 1175.64 218.661C1201.81 218.661 1222.01 240.509 1222.01 270.266C1222.01 300.401 1200.69 320.365 1175.64 320.365Z" fill="currentColor"/> <path d="M1377.39 364.812C1402.07 364.812 1421.15 355.396 1433.86 338.822H1434.23V361.422H1480.98V84.1875H1432.36V198.698H1431.62C1418.15 182.877 1398.71 174.59 1376.27 174.59C1327.28 174.59 1289.89 214.141 1289.89 269.89C1289.89 326.768 1326.91 364.812 1377.39 364.812ZM1386.37 320.365C1359.07 320.365 1339.62 299.647 1339.62 270.266C1339.62 238.625 1360.19 218.661 1386.37 218.661C1414.41 218.661 1434.23 240.509 1434.23 270.266C1434.23 300.401 1413.29 320.365 1386.37 320.365Z" fill="currentColor"/> <path d="M1591.78 364.812C1616.46 364.812 1635.53 355.396 1648.24 338.822H1648.62V361.422H1695.36V84.1875H1646.75V198.698H1646C1632.54 182.877 1613.09 174.59 1590.65 174.59C1541.66 174.59 1504.27 214.141 1504.27 269.89C1504.27 326.768 1541.29 364.812 1591.78 364.812ZM1600.75 320.365C1573.45 320.365 1554.01 299.647 1554.01 270.266C1554.01 238.625 1574.57 218.661 1600.75 218.661C1628.8 218.661 1648.62 240.509 1648.62 270.266C1648.62 300.401 1627.68 320.365 1600.75 320.365Z" fill="currentColor"/> <path d="M1805.79 364.812C1829.72 364.812 1848.04 355.772 1860.76 339.198L1861.51 339.575V361.422H1908.25V177.227H1859.26V198.321L1858.51 198.698C1845.42 182.877 1825.98 174.59 1804.66 174.59C1755.67 174.59 1718.65 214.141 1718.65 269.89C1718.65 326.768 1755.67 364.812 1805.79 364.812ZM1815.13 320.365C1787.46 320.365 1768.39 299.647 1768.39 270.266C1768.39 238.625 1788.58 218.661 1815.13 218.661C1841.31 218.661 1861.51 240.509 1861.51 270.266C1861.51 300.401 1840.19 320.365 1815.13 320.365Z" fill="currentColor"/> <circle cx="203.453" cy="231.516" r="189.422" fill="#FF9933"/> <circle cx="105.234" cy="133.297" r="105.234" fill="#1CA30F"/> </g> <defs> <clipPath id="clip0"> <rect width="1908.25" height="392.875" fill="currentColor" transform="translate(0 28.0625)"/> </clipPath> </defs> 
</symbol>
</svg>
